!!!COM: Obrecht, Jacob
!!!CDT: 1458-1505/07
!!!OPR:	Missa Adieu mes amours
!!!ONM:	1
!!!OTL:	Kyrie
!!!AGN:	Mass; Kyrie
!!!SCT:	Obr1001a
!!!SCA:	Obr1001a
!!!voices:	4
!!!voices-OPR:	4
**kern	**kern	**kern	**kern
*staff4	*staff3	*staff2	*staff1
*Ivox	*Ivox	*Ivox	*Ivox
*I"Bassus	*I"Tenor	*I"Altus	*I"Superius
*I'B	*I'T	*I'A	*I'S
*>[A,B,C]	*>[A,B,C]	*>[A,B,C]	*>[A,B,C]
*>A	*>A	*>A	*>A
*clefF4	*clefGv2	*clefGv2	*clefG2
*k[b-]	*k[b-]	*k[b-]	*k[b-]
*M2/1	*M2/1	*M2/1	*M2/1
*met(C|)	*met(C|)	*met(C|)	*met(C|)
!!incipit: 5
!!section: Kyrie I
!!!OMD: Kyrie I
=1-	=1-	=1-	=1-
1GG	0r	0r	0r
1BB-	.	.	.
=2	=2	=2	=2
1AA	0r	1r	0r
1GG	.	1G	.
=3	=3	=3	=3
0D	0r	1B-	0r
.	.	1A	.
=4	=4	=4	=4
0r	0r	1G	1g
.	.	[1d	1b-
=5	=5	=5	=5
0r	0r	2d\]	1a
.	.	2.c\	.
.	.	.	1g
.	.	4B-\	.
.	.	[2B-\	.
=6	=6	=6	=6
1GG	0r	2B-\]	0dd
.	.	4A/	.
.	.	4G/	.
1BB-	.	2F/	.
.	.	[2G/	.
=7	=7	=7	=7
1AA	1r	2G/]	1cc
.	.	2F#i/	.
1GG	1G	1G	2b-\
.	.	.	[2b-\
=8	=8	=8	=8
0D	1B-	1D	2b-\]
.	.	.	4a/
.	.	.	4g/
.	1A	1F	1f
=9	=9	=9	=9
0r	1G	1E	2.g/
.	.	.	4a/
.	[1d	1D	2b-\
.	.	.	[2a/
=10	=10	=10	=10
0r	1d]	0A	2a/]
.	.	.	4g/
.	.	.	4f/
.	1c	.	1e
=11	=11	=11	=11
1GG	2B-\	1r	1.d
.	1B-	.	.
1BB-	.	2.F/	.
.	4A/	.	[2f/
.	4G/	4G/	.
=12	=12	=12	=12
1AA	1F	1A	2f/]
.	.	.	4e/
.	.	.	4d/
1GG	1G	[1B-	2e/
.	.	.	[2d/
=13	=13	=13	=13
0D	1B-	2B-\]	2d/]
.	.	2.d\	1g
.	1A	.	.
.	.	4c\	.
.	.	4B-\	2f/
.	.	4A/	.
=14	=14	=14	=14
0r	1G	2B-\	1g
.	.	1B-	.
.	[1d	.	2.b-\
.	.	4A/	.
.	.	4G/	8a/L
.	.	.	8b-/J
=15	=15	=15	=15
0r	1d]	2F/	2a/
.	.	1G	2g/
.	1c	.	1a
.	.	2F#i/	.
=16	=16	=16	=16
1GG	2.B-\	1G	1g
.	4A/	.	.
1BB-	2F/	1d	2r
.	[2G/	.	2d/
=17	=17	=17	=17
1AA	2G/]	1c	2e/
.	2F/	.	1f
1GG	1G	1B-	.
.	.	.	2e/
=18	=18	=18	=18
0D	[0F	1A	2f/
.	.	.	1d
.	.	2B-\	.
.	.	[2A/	4c/
.	.	.	4B-/
=19	=19	=19	=19
0r	0F]	4A/]	2A/
.	.	4G/	.
.	.	4F/	1d
.	.	4E/	.
.	.	2D/	.
.	.	2F/	4c/
.	.	.	4B-/
=20	=20	=20	=20
0r	0r	1E	1c
.	.	1D	1d
=21	=21	=21	=21
1GG	0r	0r	2r
.	.	.	1g
1BB-	.	.	.
.	.	.	4f/
.	.	.	4e/
=22	=22	=22	=22
1AA	0r	1r	1f
1GG	.	2r	1g
.	.	[2G/	.
=23	=23	=23	=23
0D	0r	2G/]	0r
.	.	4F/	.
.	.	4E/	.
.	.	1F	.
=24	=24	=24	=24
0r	1G	1G	2r
.	.	.	1g
.	1B-	1r	.
.	.	.	4f/
.	.	.	4e/
=25	=25	=25	=25
0r	1A	0r	1f
.	1G	.	1g
=26	=26	=26	=26
1GG	0d	2r	0r
.	.	1G	.
1BB-	.	.	.
.	.	4F/	.
.	.	4E/	.
=27	=27	=27	=27
1AA	2.c\	1F	1r
.	4d\	.	.
1GG	2e-i\	1G	2r
.	[2d\	.	[2g/
=28	=28	=28	=28
0D	2d\]	1A	2g/]
.	4c\	.	4f#i/
.	4B-\	.	4e/
.	1A	1d	1f#i
=29	=29	=29	=29
[0GGl	[0Gl	1B-	[0gl
.	.	2B-\	.
.	.	[2G/	.
=30	=30	=30	=30
0GG_	0G_	4G/]	0g_
.	.	4F/	.
.	.	4E-i/	.
.	.	4D/	.
.	.	1E-i	.
=31	=31	=31	=31
0GG]	0G]	0Dl	0g]
!!LO:LB:i:g=z
=32||	=32||	=32||	=32||
*>B	*>B	*>B	*>B
*clefF4	*clefGv2	*clefGv2	*clefG2
*k[b-]	*k[b-]	*k[b-]	*k[b-]
*M2/1	*M2/1	*M2/1	*M2/1
*met(C|)	*met(C|)	*met(C|)	*met(C|)
!!section: Christe
!!!OMD: Christe
1.GG	[0G	0r	0r
2AA/	.	.	.
=33	=33	=33	=33
1BB-	0G_	0r	0r
1C	.	.	.
=34	=34	=34	=34
2BB-/	0G]	0r	0r
2.C/	.	.	.
4BB-/	.	.	.
4AA/	.	.	.
4GG/	.	.	.
=35	=35	=35	=35
1FF	[0A	0r	0r
1D	.	.	.
=36	=36	=36	=36
2C/	0A]	0r	0r
2.D\	.	.	.
4C/	.	.	.
4BB-/	.	.	.
4AA/	.	.	.
=37	=37	=37	=37
1GG	[0B-	0r	0r
[1G	.	.	.
=38	=38	=38	=38
2G\]	0B-]	0r	0r
4F\	.	.	.
4E\	.	.	.
[1D	.	.	.
=39	=39	=39	=39
1D]	0A	0r	0r
1F	.	.	.
=40	=40	=40	=40
1E	1G	0r	0r
1D	[1A	.	.
=41	=41	=41	=41
1C	2A/]	0r	0r
.	2G/	.	.
1BB-	[1G	.	.
=42	=42	=42	=42
0AA	1G]	0r	0r
.	1F#i	.	.
=43	=43	=43	=43
2GG/	1G	0r	0r
2.BB-/	.	.	.
.	1B-	.	.
4AA/	.	.	.
[2GG/	.	.	.
=44	=44	=44	=44
2GG/]	1A	0r	0r
2FF#i/	.	.	.
1GG	1G	.	.
=45	=45	=45	=45
2G\	[0d	0r	0r
2.B-\	.	.	.
4A\	.	.	.
[2G\	.	.	.
=46	=46	=46	=46
2G\]	0d_	0r	0r
2F#i\	.	.	.
1G	.	.	.
=47	=47	=47	=47
2D\	0d]	0r	0r
1F	.	.	.
4E-i\	.	.	.
4D\	.	.	.
=48	=48	=48	=48
2E-i\	2c\	0r	0r
2D\	1B-	.	.
1E-i	.	.	.
.	4A/	.	.
.	4G/	.	.
=49	=49	=49	=49
1.D	[0F	0r	0r
[2BB-/	.	.	.
=50	=50	=50	=50
2BB-/]	0F]	0r	0r
2AA/	.	.	.
2.BB-/	.	.	.
4AA/	.	.	.
=51	=51	=51	=51
2.FF/	1r	0r	0r
4GG/	.	.	.
2AA/	1F	.	.
[2BB-/	.	.	.
=52	=52	=52	=52
4BB-/]	1G	0r	0r
4GG/	.	.	.
1GG	.	.	.
.	1A	.	.
2FF#i/	.	.	.
=53	=53	=53	=53
1GG	1B-	0r	0r
1r	1G	.	.
=54	=54	=54	=54
2.GG/	1r	0r	0r
4AA/	.	.	.
2BB-/	1G	.	.
[2C/	.	.	.
=55	=55	=55	=55
4C/]	1A	0r	0r
4AA/	.	.	.
1AA	.	.	.
.	1B-	.	.
2GG/	.	.	.
=56	=56	=56	=56
1AA	1c	0r	0r
1r	1A	.	.
=57	=57	=57	=57
2.AA/	1r	0r	0r
4BB-/	.	.	.
2C/	1A	.	.
[2D\	.	.	.
=58	=58	=58	=58
4D\]	1B-	0r	0r
4BB-/	.	.	.
1BB-	.	.	.
.	1c	.	.
2AA/	.	.	.
=59	=59	=59	=59
1BB-	1d	0r	0r
1r	1B-	.	.
=60	=60	=60	=60
2.BB-/	1r	0r	0r
4C/	.	.	.
2D\	1B-	.	.
[2E-\	.	.	.
=61	=61	=61	=61
4E-\]	1c	0r	0r
4C/	.	.	.
1C	.	.	.
.	1d	.	.
2BBni/	.	.	.
=62	=62	=62	=62
1C	1e-i	0r	0r
1r	1c	.	.
=63	=63	=63	=63
2.C/	1r	0r	0r
4D\	.	.	.
2E\	1c	.	.
[2F\	.	.	.
=64	=64	=64	=64
4F\]	1d	0r	0r
4D\	.	.	.
1D	.	.	.
.	1e	.	.
2C#i/	.	.	.
=65	=65	=65	=65
1D	1f	0r	0r
2.D\	[1d	.	.
4E\	.	.	.
=66	=66	=66	=66
2F\	1d]	0r	0r
2.G\	.	.	.
.	[1g	.	.
4A\	.	.	.
[2B-\	.	.	.
=67	=67	=67	=67
2B-\]	1g]	0r	0r
4A\	.	.	.
4G\	.	.	.
1A	1f#i	.	.
=68	=68	=68	=68
1.G	1g	0r	1r
.	2r	.	1g
4F\	[2g\	.	.
4E\	.	.	.
=69	=69	=69	=69
1D	2g\]	0r	1a
.	2f\	.	.
1GG	2g\	.	1b-
.	[2e\	.	.
=70	=70	=70	=70
1r	2e\]	0r	1cc
.	2c\	.	.
1D	1d	.	1a
=71	=71	=71	=71
1E	2B-\	0r	1r
.	1c	.	.
1F	.	.	1a
.	4B-\	.	.
.	4A/	.	.
=72	=72	=72	=72
1G	2G/	0r	1b-
.	1g	.	.
1E	.	.	1cc
.	2e\	.	.
=73	=73	=73	=73
1D	1f	0r	2.dd\
.	.	.	4cc\
2.G\	2g\	.	2b-\
.	[2d\	.	[2a/
8F\L	.	.	.
8E\J	.	.	.
=74	=74	=74	=74
2F\	4d\]	0r	4a/]
.	4c\	.	4g/
2G\	2B-\	.	1g
1D	1A	.	.
.	.	.	2f#i/
=75	=75	=75	=75
0GGl	0Gl	0r	0gl
!!LO:LB:i:g=z
=76||	=76||	=76||	=76||
!!section: Kyrie II
!!!OMD:	Kyrie II
*>C	*>C	*>C	*>C
*clefF4	*clefGv2	*clefGv2	*clefG2
*k[b-]	*k[b-]	*k[b-]	*k[b-]
*M3/1	*M3/1	*M3/1	*M3/1
*met(O)	*met(O)	*met(O)	*met(O)
2.GG/	0.r	1.d	0g
4AA/	.	.	.
2BB-/	.	.	.
1C	.	1e-	.
.	.	.	1a
4BB-/	.	4d\	.
4AA/	.	4c\	.
=77	=77	=77	=77
2.GG/	0.G	1.d	1.b-
4AA/	.	.	.
2BB-/	.	.	.
2.C/	.	2.e-i\	2a/
.	.	.	1g
4D\	.	4d\	.
2E\	.	4c\	.
.	.	4B-\	.
=78	=78	=78	=78
2F\	0d	2A/	2f/
2.G\	.	2.B-\	2d/
.	.	.	0g
4F\	.	4A/	.
4E\	.	4G/	.
4D\	.	4F/	.
1E	1c	1G	.
=79	=79	=79	=79
1D	0d	1.A	0f
2.F\	.	.	.
.	.	4G/	.
8E\L	.	4F/	.
8D\J	.	.	.
2E\	1c	2G/	1r
[2D\	.	[2F/	.
=80	=80	=80	=80
2D\]	2B-\	2F/]	1r
2C/	2.A/	2E/	.
2D\	.	2F/	2f/
.	4G/	.	.
2BB-/	1G	1D	2g/
1AA	.	.	1a
.	2F#i/	2C/	.
=81	=81	=81	=81
1.GG	0.G	1D	2b-\
.	.	.	2.g/
.	.	0E	.
.	.	.	4f/
1C	.	.	4e/
.	.	.	4d/
.	.	.	1c
4BB-/	.	.	.
4AA/	.	.	.
=82	=82	=82	=82
2BB-/	1r	2D/	2d/
2C/	.	2.G/	1e
2GG/	1r	.	.
.	.	4A/	.
1G	.	2.B-\	4d/
.	.	.	4c/
.	1G	.	1d
.	.	4A/	.
4F\	.	2G/	.
4E\	.	.	.
=83	=83	=83	=83
2F\	0d	2A/	2r
2G\	.	1B-	2g/
2D\	.	.	2a/
2F\	.	1A	2f/
1E-i	1c	.	1g
.	.	2G/	.
=84	=84	=84	=84
2D\	0d	2A/	4f/
.	.	.	4e/
2.BB-/	.	2B-\	4d/
.	.	.	4c/
.	.	1F	2B-/
4C/	.	.	.
4D\	.	.	1b-
4E\	.	.	.
2.F\	1c	2r	.
.	.	2f\	2a/
8E\L	.	.	.
8F\J	.	.	.
=85	=85	=85	=85
2G\	2B-\	2d\	2b-\
2C/	2.c\	2.e-i\	2.a/
1E-	.	.	.
.	4B-\	4d\	4g/
.	4A/	4c\	1g
.	4G/	4B-\	.
1D	1A	[1d	.
.	.	.	2f#i/
=86	=86	=86	=86
1.GG	0G	1d]	1g
.	.	1B-	1r
1BB-	.	.	.
.	1r	2G/	[1g
[2GG/	.	[2B-\	.
=87	=87	=87	=87
1GG]	1G	2B-\]	2g/]
.	.	2.G/	1b-
2.G\	1B-	.	.
.	.	4A/	.
.	.	4B-\	1g
8F\L	.	4c\	.
8E\J	.	.	.
1D	1A	[1d	.
.	.	.	2f#i/
=88	=88	=88	=88
2r	1G	1d]	2g/
2.GG/	.	.	2.b-\
.	1.d	2.B-\	.
4AA/	.	.	4cc\
4BB-/	.	.	2.dd\
4C/	.	4A/	.
2D\	.	2F/	.
.	.	.	4cc\
2G\	4c\	2G/	2b-\
.	4B-\	.	.
=89	=89	=89	=89
2F\	2c\	2A/	2a/
2.G\	2.B-\	2d\	2.g/
.	.	2e\	.
4E\	4A/	.	4f/
2F\	4G/	1.c	1f
.	4F/	.	.
1C	1G	.	.
.	.	.	2e/
=90	=90	=90	=90
1r	1F	1A	1f
1GG	1r	2G/	1.g
.	.	1B-	.
1BB-	1G	.	.
.	.	[2G/	[2b-\
=91	=91	=91	=91
1GG	1B-	2G/]	2b-\]
.	.	1.d	1g
1D	1A	.	.
.	.	.	2f#i/
[1GG	1G	2.B-\	2g/
.	.	.	[2b-\
.	.	4A/	.
=92	=92	=92	=92
2GG/]	0d	2G/	4b-\]
.	.	.	4cc\
2.BB-/	.	2F/	2.dd\
.	.	1B-	.
4C/	.	.	4cc\
4D\	.	.	2b-\
4BB-/	.	.	.
[1F	[1c	[1A	2cc\
.	.	.	[2a/
=93	=93	=93	=93
2F\]	2c\]	2A/]	4a/]
.	.	.	4g/
2.G\	2B-\	1d	2.b-\
.	1G	.	.
4F\	.	.	4a/
2E\	.	2c\	1g
1D	1A	[1dl	.
.	.	.	2f#i/
=94	=94	=94	=94
0.GGl	0.Gl	0.d]	0.gl
==	==	==	==
*-	*-	*-	*-
!!!RDF**kern: l=long note in original notation
!!!RDF**kern: i=editorial accidental
!!!RDF**kern: V=start of tuplet marker
!!!RDF**kern: Z=end of tuplet marker
!!!ENC:	Chris Gage 09-06-2012
!!!END:	2012/09/18/
!!!EED:	Jesse Rodin
!!!EEV:	2012/09/18/
!!!ONB:	Translated from MusicXML and edited on 2012/09/18/ by Craig Sapp
!!muse2ps: T^@{OPR}^u^@{ONM}{. }@{OTL}^C^@{COM}^i2I150v85,85,85,150Q16c80
